src/lib/packages/icons/src/assets/line/sort-ascending.svg

<svg width="24" height="24" viewBox="0 0 24 24" fill="none" xmlns="http://www.w3.org/2000/svg">
<path d="M20 18.75H4C3.586 18.75 3.25 18.414 3.25 18C3.25 17.586 3.586 17.25 4 17.25H20C20.414 17.25 20.75 17.586 20.75 18C20.75 18.414 20.414 18.75 20 18.75ZM17.75 12C17.75 11.586 17.414 11.25 17 11.25H7C6.586 11.25 6.25 11.586 6.25 12C6.25 12.414 6.586 12.75 7 12.75H17C17.414 12.75 17.75 12.414 17.75 12ZM14.75 6C14.75 5.586 14.414 5.25 14 5.25H10C9.586 5.25 9.25 5.586 9.25 6C9.25 6.414 9.586 6.75 10 6.75H14C14.414 6.75 14.75 6.414 14.75 6Z" fill="currentColor"/>
</svg>

<svg xmlns="http://www.w3.org/2000/svg" width="24" height="24" fill="none"><path fill="currentColor" d="M20 18.75H4a.75.75 0 0 1 0-1.5h16a.75.75 0 0 1 0 1.5ZM17.75 12a.75.75 0 0 0-.75-.75H7a.75.75 0 0 0 0 1.5h10a.75.75 0 0 0 .75-.75Zm-3-6a.75.75 0 0 0-.75-.75h-4a.75.75 0 0 0 0 1.5h4a.75.75 0 0 0 .75-.75Z"/></svg>
